PortableApps/LibreOfficePortable/App/libreoffice/help/media/icon-themes/cmd/sc_cleararrowdependents.svg

<svg viewBox="0 0 16 16" xmlns="http://www.w3.org/2000/svg"><path d="m9 0v1h1 1 4v4h-3v1h4v-6zm-9 5v2.40625l.6640625-.6289062.3359375-.3183594v-.4589844h.8691406 3.0097656l1-1zm12 5v1h3v4h-4-1-.4355469l-.2226562.220703-.3417969.341797v.4375h7v-6zm-12 .21875v.78125h.76171875z" fill="#808080"/><path d="m11 1c.552262.0000552.999945.4477381 1 1v3h3v-4zm-10 5v4h3.8789062l-.4277343-.4277344c-.4234525-.4098219-.5136912-1.0423005-.3515625-1.5410156-.001819-.00475-.0099488-.0050056-.0117188-.0097656-.00255-.006882.0082994-.0145444.0058594-.0214844.00244-.00694-.0084094-.0146044-.0058594-.0214844.001769-.00477.0098988-.0050156.0117188-.0097656-.1621287-.4987151-.0718903-1.1311937.3515625-1.5410156l.4277343-.4277344zm11 5v3c-.000055.552262-.447738.999945-1 1h4v-4z" fill="#fff"/><path d="m7 2 1.6464844 1.6464844-3.5 3.5c-.1596555.1545162-.1840078.3635501-.1152344.5371094l1.3476562-1.3808594c.3200112-.3281588.8032336-.3722626 1.1875-.1621094l1.7871094-1.7871094 1.6464844 1.6464844v-4zm4 8-1.6464844 1.646484-.9179687-.917968-.6679688.740234.3242188.330078.5546875.554688-.0058594.005859 1.0722656 1.089844c.1528095.155443.2270645.350467.2578125.550781h1.0292969z" fill="#4d82b8"/><path d="m9 14.149904-2.605902-2.651537 2.50749-2.7777731-1.807553-1.7205858-2.580554 2.6470557-2.632865-2.6470557-1.880616 1.783872 2.632863 2.7031729-2.632863 2.660005 1.880616 1.852942 2.62981-2.77941 2.635919 2.77941z" fill="#e68497"/></svg>

<svg viewBox="0 0 16 16" xmlns="http://www.w3.org/2000/svg">
  <path
     style="fill:#808080"
     d="M 9 0 L 9 1 L 10 1 L 11 1 L 15 1 L 15 5 L 12 5 L 12 6 L 16 6 L 16 0 L 9 0 z M 0 5 L 0 7.40625 L 0.6640625 6.7773438 L 1 6.4589844 L 1 6 L 1.8691406 6 L 4.8789062 6 L 5.8789062 5 L 0 5 z M 12 10 L 12 11 L 15 11 L 15 15 L 11 15 L 10 15 L 9.5644531 15 L 9.3417969 15.220703 L 9 15.5625 L 9 16 L 16 16 L 16 10 L 12 10 z M 0 10.21875 L 0 11 L 0.76171875 11 L 0 10.21875 z " />
  <path
     style="fill:#ffffff"
     d="M 11 1 C 11.552262 1.0000552 11.999945 1.4477381 12 2 L 12 5 L 15 5 L 15 1 L 11 1 z M 1 6 L 1 10 L 4.8789062 10 L 4.4511719 9.5722656 C 4.0277194 9.1624437 3.9374807 8.5299651 4.0996094 8.03125 C 4.0977904 8.0265 4.0896606 8.0262444 4.0878906 8.0214844 C 4.0853406 8.0146024 4.09619 8.00694 4.09375 8 C 4.09619 7.99306 4.0853406 7.9853956 4.0878906 7.9785156 C 4.0896596 7.9737456 4.0977894 7.9735 4.0996094 7.96875 C 3.9374807 7.4700349 4.0277191 6.8375563 4.4511719 6.4277344 L 4.8789062 6 L 1 6 z M 12 11 L 12 14 C 11.999945 14.552262 11.552262 14.999945 11 15 L 15 15 L 15 11 L 12 11 z " />
  <path
     style="fill:#4d82b8"
     d="M 7 2 L 8.6464844 3.6464844 L 5.1464844 7.1464844 C 4.9868289 7.3010006 4.9624766 7.5100345 5.03125 7.6835938 L 6.3789062 6.3027344 C 6.6989174 5.9745756 7.1821398 5.9304718 7.5664062 6.140625 L 9.3535156 4.3535156 L 11 6 L 11 2 L 7 2 z M 11 10 L 9.3535156 11.646484 L 8.4355469 10.728516 L 7.7675781 11.46875 L 8.0917969 11.798828 L 8.6464844 12.353516 L 8.640625 12.359375 L 9.7128906 13.449219 C 9.8657001 13.604662 9.9399551 13.799686 9.9707031 14 L 11 14 L 11 10 z "
     id="path4-6-2" />
  <path
     style="fill:#e68497"
     d="M 9,14.149904 6.394098,11.498367 8.901588,8.7205939 7.094035,7.0000081 4.513481,9.6470638 1.880616,7.0000081 0,8.7838801 2.632863,11.487053 0,14.147058 1.880616,16 4.510426,13.22059 7.146345,16 Z" />
</svg>
